svgs/solid/sliders-up.svg

<svg xmlns="http://www.w3.org/2000/svg" viewBox="0 0 512 512"><!--! Font Awesome Pro 6.2.0 by @fontawesome - https://fontawesome.com License - https://fontawesome.com/license (Commercial License) Copyright 2022 Fonticons, Inc. --><path d="M96 0c17.7 0 32 14.3 32 32V86.7c28.3 12.3 48 40.5 48 73.3s-19.7 61-48 73.3V480c0 17.7-14.3 32-32 32s-32-14.3-32-32V233.3C35.7 221 16 192.8 16 160s19.7-61 48-73.3V32C64 14.3 78.3 0 96 0zm0 192c17.7 0 32-14.3 32-32s-14.3-32-32-32s-32 14.3-32 32s14.3 32 32 32zM256 384c17.7 0 32-14.3 32-32s-14.3-32-32-32s-32 14.3-32 32s14.3 32 32 32zm80-32c0 32.8-19.7 61-48 73.3V480c0 17.7-14.3 32-32 32s-32-14.3-32-32V425.3c-28.3-12.3-48-40.5-48-73.3s19.7-61 48-73.3V32c0-17.7 14.3-32 32-32s32 14.3 32 32V278.7c28.3 12.3 48 40.5 48 73.3zM448 192c0-17.7-14.3-32-32-32s-32 14.3-32 32s14.3 32 32 32s32-14.3 32-32zm0 73.3V480c0 17.7-14.3 32-32 32s-32-14.3-32-32V265.3c-28.3-12.3-48-40.5-48-73.3s19.7-61 48-73.3V32c0-17.7 14.3-32 32-32s32 14.3 32 32v86.7c28.3 12.3 48 40.5 48 73.3s-19.7 61-48 73.3z"/></svg>

<svg xmlns="http://www.w3.org/2000/svg" viewBox="0 0 512 512"><!--! Font Awesome Pro 6.1.2 by @fontawesome - https://fontawesome.com License - https://fontawesome.com/license (Commercial License) Copyright 2022 Fonticons, Inc. --><path d="M96 0C113.7 0 128 14.33 128 32V86.66C156.3 99 176 127.2 176 160C176 192.8 156.3 220.1 128 233.3V480C128 497.7 113.7 512 96 512C78.33 512 64 497.7 64 480V233.3C35.75 220.1 16 192.8 16 160C16 127.2 35.75 99 64 86.66V32C64 14.33 78.33 0 96 0V0zM96 192C113.7 192 128 177.7 128 160C128 142.3 113.7 128 96 128C78.33 128 64 142.3 64 160C64 177.7 78.33 192 96 192zM336 352C336 384.8 316.3 412.1 288 425.3V480C288 497.7 273.7 512 256 512C238.3 512 224 497.7 224 480V425.3C195.7 412.1 176 384.8 176 352C176 319.2 195.7 291 224 278.7V32C224 14.33 238.3 0 256 0C273.7 0 288 14.33 288 32V278.7C316.3 291 336 319.2 336 352zM256 384C273.7 384 288 369.7 288 352C288 334.3 273.7 320 256 320C238.3 320 224 334.3 224 352C224 369.7 238.3 384 256 384zM448 480C448 497.7 433.7 512 416 512C398.3 512 384 497.7 384 480V265.3C355.7 252.1 336 224.8 336 192C336 159.2 355.7 131 384 118.7V32C384 14.33 398.3 0 416 0C433.7 0 448 14.33 448 32V118.7C476.3 131 496 159.2 496 192C496 224.8 476.3 252.1 448 265.3V480zM416 160C398.3 160 384 174.3 384 192C384 209.7 398.3 224 416 224C433.7 224 448 209.7 448 192C448 174.3 433.7 160 416 160z"/></svg>
